X:120
T:Chalford Bottom
M:2/4
L:1/8
B:Thompson's Compleat Collection of 200 Favourite Country Dances, vol. 1 (London, 1757)
Z:Transcribed and edited by Flynn Titford-Mock, 2007
Z:abc's:AK/Fiddler's Companion
K:D
d2 (3fed|eA A2|d2 (3fed|ea a2|d2 (3fed|eA A2|(3Bcd (3edc|d2 D2:|
|:(3fga (3fga|ga b2|(3efg (3efg|fg a2|(3Bcd ed|"tr"c>B A2|(3efg fd|Ac d2:|

